X: 1032
T: Alston Flower Show
R: hornpipe
M: 4/4
K: Gmajor
|:dc|BdAd Ggfd|edef g2dc|Bg (3edc BGFG|Ad^cd A2d=c|
BdAd Ggfd|edef gedc|Bg (3edc BGAF|G2GF G2:|
|:cB|A<DEF GABc|(3BAG ce d<GBd|(3efg fa gf (3efg|fdd^c d2d=c|
BdAd Ggfd|edef gedc|Bg (3edc BGAF|G2GF G2:|

